icons/layers-plus-danger.svg

<svg fill="none" stroke="currentColor" stroke-linecap="round" stroke-linejoin="round" stroke-width="1.5" viewBox="0 0 24 24"><path d="M6.429 9.75 2.25 12l4.179 2.25m0-4.5 5.571 3 5.571-3m-11.142 0L2.25 7.5 12 2.25l9.75 5.25-4.179 2.25m0 0L21.75 12l-4.179 2.25m0 0L12 17.253m5.571-3.003-5.571 3-5.571-3" style="stroke:rgb(220,20,60)" transform="translate(0 5.508)"/><path d="M18 7.5v3m0 0v3m0-3h3m-3 0h-3" style="stroke:rgb(220,20,60)" transform="translate(1.289 -5.742)"/></svg>

<?xml version="1.0" encoding="UTF-8" standalone="no"?>
<!DOCTYPE svg PUBLIC "-//W3C//DTD SVG 1.1//EN" "http://www.w3.org/Graphics/SVG/1.1/DTD/svg11.dtd">
<svg width="100%" height="100%" viewBox="0 0 24 24" version="1.1" xmlns="http://www.w3.org/2000/svg" xmlns:xlink="http://www.w3.org/1999/xlink" xml:space="preserve" xmlns:serif="http://www.serif.com/" style="fill-rule:evenodd;clip-rule:evenodd;stroke-linecap:round;stroke-linejoin:round;">
    <g>
        <g transform="matrix(1,0,0,1,0,5.508)">
            <path d="M6.429,9.75L2.25,12L6.429,14.25M6.429,9.75L12,12.75L17.571,9.75M6.429,9.75L2.25,7.5L12,2.25L21.75,7.5L17.571,9.75M17.571,9.75L21.75,12L17.571,14.25M17.571,14.25L12,17.253M17.571,14.25L12,17.25L6.429,14.25" style="fill:none;fill-rule:nonzero;stroke:rgb(220,20,60);stroke-width:1.5px;"/>
        </g>
        <g transform="matrix(1,0,0,1,1.289,-5.742)">
            <path d="M18,7.5L18,10.5M18,10.5L18,13.5M18,10.5L21,10.5M18,10.5L15,10.5" style="fill:none;fill-rule:nonzero;stroke:rgb(220,20,60);stroke-width:1.5px;"/>
        </g>
    </g>
</svg>
